images/Twitter.svg

<svg viewBox="0 0 25 24" fill="none" xmlns="http://www.w3.org/2000/svg">
    <path fill-rule="evenodd" clip-rule="evenodd" d="M15.7489 3.34352C16.2579 3.25644 16.8278 3.22736 17.3642 3.31801C18.3221 3.47989 19.2069 3.92462 19.9064 4.59138C20.3636 4.60171 20.8129 4.51173 21.2105 4.38347C21.5469 4.27492 21.8312 4.14385 22.0303 4.04021C22.1294 3.98868 22.2059 3.94472 22.2556 3.91496C22.2804 3.90011 22.2985 3.88886 22.3092 3.88207L22.3187 3.87601C22.6159 3.67828 23.0115 3.71677 23.2647 3.96827C23.5179 4.21984 23.5587 4.61476 23.3622 4.91266C23.1543 5.22795 22.8656 5.79002 22.5422 6.41978C22.4913 6.5188 22.4396 6.61949 22.3872 6.72116C22.2017 7.08113 22.0115 7.44494 21.8342 7.75707C21.7229 7.95306 21.6039 8.15204 21.4838 8.32398V8.59775C21.4915 9.60338 21.376 10.6038 21.1416 11.577C20.9942 12.1893 20.7997 12.7909 20.5592 13.3763C19.9361 14.893 19.0167 16.2704 17.8547 17.4282C16.6927 18.5859 15.3113 19.5008 13.7914 20.1193C12.2728 20.7373 10.6463 21.0471 9.00661 21.0306C6.62966 21.0327 4.30272 20.3486 2.30579 19.0607C2.01167 18.871 1.88783 18.5035 2.0073 18.1747C2.12677 17.846 2.45783 17.6434 2.80528 17.6863C3.10598 17.7235 3.40872 17.7416 3.71171 17.7407C4.80036 17.7376 5.86829 17.4973 6.84322 17.0447C6.53333 16.9038 6.23747 16.73 5.96101 16.5253C5.14839 15.9234 4.54382 15.0834 4.2314 14.1223C4.15022 13.8725 4.20572 13.5985 4.37772 13.3999C4.3808 13.3964 4.38392 13.3929 4.38705 13.3894C4.20332 13.2257 4.0314 13.0475 3.87313 12.8559C3.16103 11.9937 2.76892 10.9123 2.76313 9.79453L2.76311 9.79065L2.76312 9.74065C2.76312 9.47478 2.90403 9.22879 3.13348 9.09407C3.19165 9.05992 3.2533 9.03421 3.31672 9.01697C2.97802 8.34189 2.80188 7.59644 2.80316 6.84018C2.80276 5.98342 3.02681 5.14145 3.45304 4.39795C3.57609 4.18331 3.79716 4.04307 4.04396 4.0231C4.29076 4.00312 4.53156 4.10598 4.68759 4.29802C5.65121 5.48403 6.85383 6.45429 8.21733 7.14576C8.91824 7.50121 9.6536 7.77891 10.4102 7.97534C10.8344 8.08547 11.2653 8.17006 11.7006 8.22849C11.6814 7.50523 11.8244 6.78236 12.1245 6.11443C12.5646 5.1346 13.3179 4.32843 14.2662 3.82233C14.6678 3.60801 15.2009 3.43729 15.7489 3.34352ZM4.45827 10.891C4.58806 11.2559 4.78114 11.5982 5.03147 11.9013C5.52334 12.4969 6.20604 12.9044 6.9641 13.0551C7.30176 13.1222 7.55047 13.41 7.56751 13.7535C7.58456 14.097 7.36556 14.408 7.0362 14.5082C6.76341 14.5911 6.48392 14.6489 6.20125 14.681C6.38804 14.9215 6.60776 15.1369 6.85544 15.3204C7.41725 15.7365 8.09495 15.9673 8.79423 15.9808C9.1115 15.9869 9.39067 16.1916 9.49161 16.4921C9.59255 16.7926 9.49345 17.124 9.24407 17.3201C8.19374 18.1456 6.9792 18.7213 5.69222 19.0151C6.75889 19.3564 7.87757 19.532 9.00911 19.5306L9.01783 19.5306C10.4595 19.5456 11.8897 19.2735 13.2248 18.7302C14.56 18.1868 15.7734 17.3832 16.7942 16.3661C17.815 15.3491 18.6226 14.1391 19.17 12.8068C19.3813 12.2926 19.5521 11.7641 19.6816 11.2262C19.8877 10.3704 19.9891 9.49078 19.9822 8.60651L19.9822 8.60065V8.07065C19.9822 7.88879 20.0483 7.71314 20.1683 7.57636C20.2376 7.49732 20.359 7.31476 20.5282 7.01686C20.689 6.73374 20.867 6.39383 21.0521 6.03465C21.0633 6.01293 21.0745 5.99109 21.0858 5.96915C20.6057 6.0733 20.0615 6.12789 19.491 6.06631C19.3104 6.0468 19.1429 5.96252 19.0197 5.82908C18.5163 5.28374 17.8459 4.92073 17.1137 4.79699C16.7888 4.74209 16.396 4.75465 16.0025 4.82199C15.5749 4.89515 15.2028 5.02317 14.9739 5.14534C14.3189 5.49491 13.7985 6.05175 13.4945 6.72854C13.1905 7.40533 13.1199 8.16377 13.2939 8.88493C13.3494 9.11484 13.293 9.35742 13.1419 9.53945C12.9907 9.72148 12.7625 9.82164 12.526 9.80969C11.6817 9.76703 10.8463 9.63838 10.0325 9.42711C9.17165 9.20362 8.33499 8.88767 7.53754 8.48326C6.36346 7.88785 5.29422 7.11075 4.36836 6.18306C4.32612 6.39868 4.30468 6.6187 4.30483 6.84015L4.30482 6.84207C4.30378 7.39279 4.43908 7.93522 4.69867 8.42107C4.95827 8.90692 5.33411 9.32111 5.79273 9.62676C6.07106 9.81226 6.19292 10.1593 6.09156 10.4779C5.99019 10.7964 5.69006 11.0095 5.35559 11.0004C5.05266 10.9921 4.75226 10.9553 4.45827 10.891Z" fill="black"/>
</svg>

<svg viewBox="0 0 25 24" fill="none" xmlns="http://www.w3.org/2000/svg"><path fill-rule="evenodd" clip-rule="evenodd" d="M15.749 3.344c.509-.088 1.079-.117 1.615-.026a4.858 4.858 0 0 1 2.542 1.273 4 4 0 0 0 1.305-.208 5.374 5.374 0 0 0 1.098-.5l.01-.007a.752.752 0 0 1 1.043 1.037c-.208.315-.496.877-.82 1.507l-.155.301c-.185.36-.375.724-.553 1.036-.111.196-.23.395-.35.567v.274a12.32 12.32 0 0 1-.925 4.778 12.34 12.34 0 0 1-6.768 6.743 12.364 12.364 0 0 1-4.784.912 12.343 12.343 0 0 1-6.701-1.97.75.75 0 0 1 .5-1.375c.3.038.603.056.906.055a7.488 7.488 0 0 0 3.131-.696 4.87 4.87 0 0 1-2.612-2.923.75.75 0 0 1 .156-.733 4.847 4.847 0 0 1-1.624-3.595V9.742a.75.75 0 0 1 .554-.724 4.836 4.836 0 0 1-.514-2.177c0-.857.224-1.699.65-2.442a.75.75 0 0 1 1.235-.1 10.9 10.9 0 0 0 7.013 3.93 4.844 4.844 0 0 1 2.565-4.406c.402-.214.935-.385 1.483-.478zM4.459 10.89a3.349 3.349 0 0 0 2.505 2.164.75.75 0 0 1 .072 1.453c-.273.083-.552.14-.835.173a3.363 3.363 0 0 0 2.593 1.3.75.75 0 0 1 .45 1.34 8.983 8.983 0 0 1-3.552 1.694 10.84 10.84 0 0 0 3.317.516h.009a10.862 10.862 0 0 0 7.776-3.165 10.839 10.839 0 0 0 3.188-7.76v-.535a.75.75 0 0 1 .186-.495c.07-.079.191-.261.36-.56.161-.282.339-.622.524-.981l.034-.066a5.004 5.004 0 0 1-1.595.097.751.751 0 0 1-.471-.237 3.355 3.355 0 0 0-1.906-1.032 3.428 3.428 0 0 0-1.111.025 3.61 3.61 0 0 0-1.03.323 3.351 3.351 0 0 0-1.68 3.74.75.75 0 0 1-.767.925 12.417 12.417 0 0 1-8.158-3.627 3.406 3.406 0 0 0-.063.657v.002a3.337 3.337 0 0 0 1.488 2.785A.75.75 0 0 1 5.356 11a4.817 4.817 0 0 1-.898-.109z" fill="#000"/></svg>
